lusha-logo.svg

<svg width="92" height="32" viewBox="0 0 92 32" fill="none" xmlns="http://www.w3.org/2000/svg">
<path d="M33.4492 7.59961H30.0781V24.6821H39.964V21.4572H33.4492V7.59961Z" fill="#151417"/>
<path d="M48.8713 19.0711C48.8713 21.1922 47.7242 22.0958 46.1875 22.0958C44.7698 22.0958 43.7742 21.2409 43.7742 19.5797V12.4805H40.625V19.9693C40.625 23.2159 42.6487 25.0231 45.2352 25.0231C46.8693 25.0231 48.1409 24.4117 48.8713 23.3133V24.6823H52.0205V12.4805H48.8713V19.0711Z" fill="#151417"/>
<path d="M56.9235 15.9421C56.9235 15.282 57.5566 14.9411 58.3412 14.9411C59.2448 14.9411 59.9266 15.4065 60.2945 16.1856L62.9784 14.7193C62.0261 13.0364 60.3162 12.1328 58.3412 12.1328C55.8251 12.1328 53.7039 13.5234 53.7039 16.0125C53.7039 20.3088 60.0023 19.3294 60.0023 21.1151C60.0023 21.8239 59.3206 22.1648 58.3195 22.1648C57.1021 22.1648 56.2688 21.5804 55.9279 20.5794L53.1953 22.1161C54.0719 23.9937 55.8792 25.0218 58.3195 25.0218C60.933 25.0218 63.2219 23.7502 63.2219 21.1151C63.2165 16.6293 56.9235 17.7494 56.9235 15.9421Z" fill="#151417"/>
<path d="M71.2463 12.1394C69.6122 12.1394 68.3406 12.7509 67.6101 13.8493V7.59961H64.4609V24.6821H67.6101V18.0915C67.6101 15.9704 68.7573 15.0668 70.294 15.0668C71.7117 15.0668 72.7073 15.9217 72.7073 17.5829V24.6821H75.8565V17.1879C75.8619 13.9413 73.8328 12.1394 71.2463 12.1394Z" fill="#151417"/>
<path d="M87.0364 12.4796V13.9189C86.1598 12.8205 84.8396 12.1387 83.0593 12.1387C79.8128 12.1387 77.1289 14.947 77.1289 18.5832C77.1289 22.2193 79.8128 25.0276 83.0593 25.0276C84.8396 25.0276 86.1598 24.3459 87.0364 23.2474V24.6868H90.1856V12.4796H87.0364ZM83.6437 22.0191C81.7174 22.0191 80.2781 20.6285 80.2781 18.5777C80.2781 16.527 81.7174 15.1364 83.6437 15.1364C85.5971 15.1364 87.0364 16.527 87.0364 18.5777C87.0364 20.6285 85.5971 22.0191 83.6437 22.0191Z" fill="#151417"/>
<path fill-rule="evenodd" clip-rule="evenodd" d="M20.6336 9.31097C20.6336 9.80679 20.5685 10.2586 20.448 10.6688C25.5512 13.6678 22.9243 23.425 22.1553 25.9104C22.1341 25.979 22.0162 25.9526 22.0184 25.8809C22.0434 25.0557 21.915 23.8983 21.3489 22.7842C21.3659 22.9307 21.3746 23.0797 21.3746 23.2308C21.3746 25.352 19.6557 27.0715 17.5353 27.0715C15.4149 27.0715 13.696 25.352 13.696 23.2308C13.696 22.8372 13.7551 22.4575 13.8651 22.1C13.8344 22.0919 13.8021 22.0837 13.7685 22.0754C13.5461 22.0208 13.3125 21.9778 13.1568 21.9778C13.0018 21.9778 12.7775 22.0198 12.566 22.0731C12.5271 22.0829 12.49 22.0927 12.4555 22.1022C12.5651 22.4592 12.624 22.8383 12.624 23.2312C12.624 25.3523 10.9051 27.0719 8.78472 27.0719C6.82415 27.0719 5.20681 25.6018 4.97413 23.7034C4.57854 25.2802 4.56924 26.9897 4.63748 28.9407C4.63962 29.0017 4.56111 29.0284 4.53063 28.9755C2.82232 26.0091 1.24842 19.8656 2.38651 15.3358C3.40492 11.2823 6.25787 9.32881 8.04941 8.65901C8.37557 5.47988 11.0607 3 14.3249 3C17.8091 3 20.6336 5.82552 20.6336 9.31097ZM7.14073 19.7594C7.63907 19.5228 8.19644 19.3904 8.78472 19.3904C10.1608 19.3904 11.3678 20.1147 12.0456 21.2029C12.1184 21.181 12.2173 21.1527 12.3299 21.1243C12.555 21.0676 12.8761 20.9997 13.1568 20.9997C13.4368 20.9997 13.7667 21.0682 13.9988 21.1252C14.1066 21.1517 14.2026 21.178 14.2764 21.1993C14.9546 20.1129 16.1606 19.3901 17.5353 19.3901C17.6851 19.3901 17.8329 19.3987 17.9782 19.4154C16.6567 17.8504 16.1414 15.6657 15.955 14.2919C11.5409 16.2028 8.812 17.9517 7.14073 19.7594ZM20.1899 23.2308C20.1899 24.698 19.001 25.8867 17.5353 25.8867C16.0696 25.8867 14.8807 24.698 14.8807 23.2308C14.8807 21.7636 16.0696 20.5748 17.5353 20.5748C19.001 20.5748 20.1899 21.7636 20.1899 23.2308ZM11.4393 23.2312C11.4393 24.6984 10.2504 25.8871 8.78472 25.8871C7.31904 25.8871 6.13014 24.6984 6.13014 23.2312C6.13014 21.7639 7.31904 20.5752 8.78472 20.5752C10.2504 20.5752 11.4393 21.7639 11.4393 23.2312Z" fill="#151417"/>
</svg>

<svg xmlns="http://www.w3.org/2000/svg" width="92" height="32" fill="none"><path fill="#151417" d="M33.45 7.6h-3.372v17.082h9.886v-3.225h-6.515zm15.421 11.471c0 2.121-1.147 3.025-2.684 3.025-1.417 0-2.413-.855-2.413-2.516v-7.1h-3.149v7.49c0 3.246 2.024 5.053 4.61 5.053 1.634 0 2.906-.611 3.636-1.71v1.37h3.15V12.48h-3.15zm8.053-3.129c0-.66.633-1 1.417-1 .904 0 1.586.464 1.953 1.244l2.684-1.467c-.952-1.683-2.662-2.586-4.637-2.586-2.516 0-4.637 1.39-4.637 3.88 0 4.296 6.298 3.316 6.298 5.102 0 .709-.681 1.05-1.683 1.05-1.217 0-2.05-.585-2.391-1.586l-2.733 1.537c.877 1.878 2.684 2.906 5.124 2.906 2.614 0 4.903-1.272 4.903-3.907-.005-4.486-6.299-3.366-6.299-5.173m14.323-3.802c-1.634 0-2.905.61-3.636 1.71V7.6h-3.15v17.082h3.15v-6.59c0-2.122 1.147-3.025 2.684-3.025 1.418 0 2.413.855 2.413 2.516v7.1h3.15v-7.495c.005-3.247-2.024-5.049-4.61-5.049m15.789.341v1.439c-.876-1.099-2.196-1.78-3.977-1.78-3.246 0-5.93 2.808-5.93 6.444s2.684 6.445 5.93 6.445c1.78 0 3.1-.682 3.977-1.78v1.439h3.15V12.48zm-3.392 9.54c-1.927 0-3.366-1.392-3.366-3.442s1.44-3.442 3.366-3.442c1.953 0 3.392 1.391 3.392 3.442 0 2.05-1.439 3.441-3.392 3.441"/><path fill="#151417" fill-rule="evenodd" d="M20.634 9.311c0 .496-.066.948-.186 1.358 5.103 2.999 2.476 12.756 1.707 15.241-.02.069-.139.043-.137-.03.025-.824-.103-1.982-.67-3.096q.027.22.027.447a3.84 3.84 0 1 1-7.51-1.131l-.097-.025a3 3 0 0 0-.611-.097c-.155 0-.38.042-.591.095l-.11.03a3.84 3.84 0 1 1-7.481 1.601c-.396 1.576-.406 3.286-.338 5.237.003.06-.076.087-.106.035-1.709-2.967-3.283-9.11-2.144-13.64 1.018-4.054 3.87-6.007 5.662-6.677a6.31 6.31 0 0 1 12.584.652M7.14 19.759a3.837 3.837 0 0 1 4.905 1.444 7 7 0 0 1 .284-.079c.225-.056.546-.124.827-.124s.61.068.842.125c.108.027.204.053.277.074a3.84 3.84 0 0 1 3.702-1.784c-1.321-1.565-1.837-3.75-2.023-5.123-4.414 1.91-7.143 3.66-8.814 5.467m13.049 3.472a2.655 2.655 0 1 1-5.31.001 2.655 2.655 0 0 1 5.31-.001m-8.75 0a2.655 2.655 0 1 1-5.311.001 2.655 2.655 0 0 1 5.31 0" clip-rule="evenodd"/></svg>
